!!!!SEGMENT: pl-sa--18-a-i-18--001_barcicki-jan--polonaisso-no-1.krn
!!!cenid: 18xx:332
!!!COM: Barcicki, Jan
!!!COM-rismID: pe41021407
!!!CDT: ~1750-<~1812
!!!CNT: Polish
!!!OTL: Polonaisso - No. 1
!!!PDT:
!!!AGN: Secular; Polonaise
!!!SMS-siglum: PL-SA
!!!SMS-shelfmark: 18/A I 18
!!!SMS-shelfwork: 001 W
!!!SMS-variant:
!!!SMS-altvar:
!!!NIFC-rismSourceID: 1001065325
!!!NIFC-rismChildID: 1001065325
!!!NIFC-islandoraID: none
!!!URL-pdf-islandora:
!!!URL-scan: https://bc.bdsandomierz.pl/dlibra/publication/1284/edition/1252/content @EN{Scan in the Sandomierz Diocese Digital Library} @PL{Skany w portalu Cyfrowa Biblioteka Diecezjalna w Sandomierzu}
!!!ONB-nifc:
!!!AIN: 1 piano
!!!key:
**kern	**kern	**dynam
*part1	*part1	*part1
*staff2	*staff1	*
*Ipiano	*Iempty	*
*I"Piano	*	*
*I'Pno.	*	*
*clefF4	*clefG2	*
*k[b-e-]	*k[b-e-]	*
*B-:	*B-:	*
*M3/4	*M3/4	*
=1	=1	=1
*	*	*
!	!LO:TX:a:t=No&colon; 1mo&colon; \nPolonoiſso	!
!	!LO:TX:a:t=	!
.	8qb-/	.
8dL 8B-\	4.bb-/	.
8f>\J	.	.
*tremolo	*	*
*2\right	*2\right	*
8d> 8B-\L	.	.
8f>\	16een/LL	.
.	16ff/JJ	.
8d> 8B-\	16ee-X/LL	.
.	16dd/	.
8f>\J	16cc/	.
.	16b-/JJ	.
*Xtremolo	*	*
=2	=2	=2
.	16qqg/LL	.
.	16qqb-/JJ	.
8cL 8A\	8b-/L	.
8e->\J	8a/J	.
8r	2a/	.
16cLL 16A\	.	.
16dJJ 16B-\	.	.
8e->L 8c\	.	.
8e->J 8c\	.	.
=3	=3	=3
*tremolo	*	*
8c 8A\L	8bbn/	.
8e->\	4ccc/	.
8c 8A\	.	.
8e->\	16een/LL	.
.	16ff/JJ	.
8c 8A\	16aa-X/LL	.
.	16gg/	.
8e->\J	16ff/	.
.	16ee-X/JJ	.
*Xtremolo	*	*
=4	=4	=4
.	8qcc/	.
*	*^	*
8d\L	8ee-/L	4ryy	.
8f>\J	8dd/J	.	.
8r	2dd/	2b-\	.
16d\LL	.	.	.
16e-\JJ	.	.	.
8f>L 8d>\	.	.	.
8f>J 8d>\	.	.	.
*	*v	*v	*
!!LO:LB:g=original
=5	=5	=5
.	8qdd/	f
4B-\	8.ddd\L	.
.	16bb-\Jk	.
8r	8bb-\L	.
8BB-L 8BBB-/	8bb-\	.
8C 8CC/	8aa\	.
8DJ 8DD/	8bb-\J	.
=6	=6	=6
4E- 4EE-/	16aa-X\LL	.
.	16gg\	.
.	16ff#X\	.
.	16gg\JJ	.
8E-L 8EE-/	16dd\LL	.
.	16ee-\	.
8EnJ 8EE-/	16bn\	.
.	16cc\JJ	.
.	8qb-X/	.
4F 4AA 4FF/	4a/	.
*clefG2	*	*
=7||	=7||	=7||
.	16qqff/LL	.
!	!LO:TX:b:i:t=dol&colon;	!
.	16qqaa/JJ	.
8cL 8A/	4.ccc\	.
8e-/J	.	.
*tremolo	*	*
8c 8A/L	.	.
8e-/	16ddd\LL	.
.	16ccc\JJ	.
8c 8A/	16bb-\LL	.
.	16aa\	.
8e-/J	16gg\	.
.	16ff\JJ	.
=8	=8	=8
.	8qff/	.
*tremolo	*	*
8d 8B-/L	8.ddd\L	.
8f/	.	.
.	16bb-\Jk	.
8d 8B-/	8.fff\L	.
8f/	.	.
.	16ddd\Jk	.
8d 8B-/	8.bb-\L	.
8f/J	.	.
.	16ddd\Jk	.
*Xtremolo	*	*
=9	=9	=9
*tremolo	*	*
8c 8A/L	16bbn\LL	.
.	16ccc\J	.
8e-/	(8.ccc\J	.
8c 8A/	.	.
.	16bbn\LL)	.
8e-/	16ddd\	.
.	16ccc\JJ	.
8c 8A/	16bb-X\LL	.
.	16aa\	.
8e-/J	16gg\	.
.	16ff\JJ	.
!!LO:LB:g=original
=10	=10	=10
*	*	*
.	8qqff/	.
8d 8B-/L	8.ddd\L	.
8f/	.	.
.	16bb-\Jk	.
8d 8B-/	16fff\LL	.
.	16ddd\	.
8f/	16fff\	.
.	16ddd\JJ	.
8d 8B-/	8bb-\L	.
8f/J	8ddd\J	.
*Xtremolo	*	*
*clefF4	*	*
=11	=11	=11
!	!	!LO:DY:rj
.	8qqff 8qqb-/	f
4B- 4BB-/	8.bb-L\	.
.	16aa\Jk	.
8r	8gg\L	.
8B-L 8BB-/	8gg\	.
8A 8AA/	8ff#X\	.
8B-J 8BB-/	8gg\J	.
=12	=12	=12
*	*Xtuplet	*
!	!LO:TX:a:t=P:problem=mixed beam	!
4G 4GG/	12g/L	.
.	12gg\	.
.	12ffn\J	.
8r	8ee-\L	.
8GL 8GG/	8ee-\	.
!LO:SIC:s=FF#	!	!
8F#X 8FF/	8dd\	.
8GJ 8GG/	8ee-\J	.
=13	=13	=13
!	!LO:TX:a:t=P:problem=mixed beam	!
4E- 4EE-/	12e-/L	.
.	12ee-\	.
.	12dd\J	.
4E- 4EE-/	12ccT\L	.
.	12dd\	.
.	12bn\J	.
4E- 4EE-/	8.cc\L	.
.	16gg\Jk	.
=14	=14	=14
4F\	16ff\LL	.
.	16dd\	.
.	16ee-\	.
.	16cc\JJ	.
.	8qqcc/	.
8B-\L	2b-\	.
8F\J	.	.
4BB-/	.	.
!!LO:LB:g=original
=15||	=15||	=15||
16BB-/LL	16r	.
16F/	16B-/LL	.
16D/	16d/	.
16F/JJ	16f/JJ	.
*rep	*	*
16BB-/LL	(16b-\LL	.
16F/	16dd\J)	.
16D/	8ddt\J	.
16F/JJ	.	.
*Xrep	*	*
*rep	*	*
16BB-/LL	8.ff\L	.
16F/	.	.
16D/	.	.
16F/JJ	16dd\Jk	.
*Xrep	*	*
=16	=16	=16
16AA\LL	16cc/LL	.
16F\	16f/	.
16C\	16a/	.
16F\JJ	16cc/JJ	.
*rep	*	*
16AA\LL	16ff\LL	.
16F\	16aa\J	.
16C\	8aa\J	.
16F\JJ	.	.
*Xrep	*	*
*rep	*	*
16AA\LL	4ccc\	.
16F\	.	.
16C\	.	.
16F\JJ	.	.
*Xrep	*	*
=17	=17	=17
!	!LO:N:vis=8	!
16C\LL	8.bb-L 8.gg\	.
16G\	.	.
16En\	.	.
16G\JJ	32aaLL 32ff\	.
!	!LO:SIC:s=een	!
.	32ggJJJ 32ee-\	.
*rep	*	*
16C\LL	8ggL 8een\	.
16G\	.	.
16E\	8ggJ 8ee\	.
16G\JJ	.	.
*Xrep	*	*
*rep	*	*
16C\LL	8ggL 8ee\	.
16G\	.	.
16E\	8bb-J 8gg\	.
16G\JJ	.	.
*Xrep	*	*
=18	=18	=18
16C\LL	8aa 8ff\	.
16A\	.	.
16F\	4ccc 4aa\	.
16A\JJ	.	.
*rep	*	*
16C\LL	.	.
16A\	.	.
16F\	16dddLL 16bb-\	.
16A\JJ	16cccJJ 16aa\	.
*Xrep	*	*
*rep	*	*
16C\LL	8.cccL 8.aa\	.
16A\	.	.
16F\	.	.
16A\JJ	16aaJk 16ff\	.
*Xrep	*	*
=19	=19	=19
16C\LL	8.bb-\L	.
16G\	.	.
16E-\	.	.
16G\JJ	32aa\LL	.
.	32gg\JJJ	.
8C\L	8ggL 8een\	.
8c\J	8ggJ 8ee\	.
8C\L	8ggL 8ee\	.
8E-\J	8bb-\J	.
=20	=20	=20
!	!LO:TX:a:t=P:problem=mixed beam	!
8F\L	16ccc\LL	.
.	16aa\	.
8B-\	16bb-\	.
.	16gg\JJ	.
.	8qqgg/	.
8c\	2ff\	.
8C/J	.	.
4F\	.	.
!!LO:PB:g=original
=21||	=21||	=21||
.	16qqb-/LL	.
!	!LO:TX:a:t=P:problem=mixed beam	!
!	!LO:TX:t=P:problem=w źródle "Trio" zapisane pomiędzy dwoma pięcioliniami, przed pierwszym taktem tego systemu	!
!	!LO:TX:a:t=Trio	!
.	16qqdd/JJ	.
!	!	!LO:DY:t=f&colon;
8BB-/L	4ff\	f
8B-\J	.	.
!	!LO:TX:a:t=3	!
4BB-/	8ddL 8b-\	.
.	8ee-J 8cc\	.
4r	12ffL 12dd\	.
.	12gg 12ee-\	.
.	12aaJ 12ff\	.
=22	=22	=22
*tremolo	*	*
!LO:TX:a:t=P:problem=mixed beam	!	!
!	!	!LO:DY:t=pia
8BB-\L	8.bb-L 8.gg\	p
8B-\	.	.
.	16ggJk 16ee-\	.
8BB-\	4.gg 4.ee-\	.
8B-\	.	.
8BB-\	.	.
8B-\J	8ff 8dd\	.
=23	=23	=23
!LO:TX:a:t=P:problem=mixed beam	!	!
!	!	!LO:DY:t=for
.	8qaa-X/	f
8BB-\L	(8.gg\L	.
8B-\	.	.
.	16ee-\Jk)	.
!	!	!LO:DY:t=pia
8BB-\	(4.ee- 4.cc\	p
8B-\	.	.
8BB-\	.	.
8B-\J	8dd 8b-\)	.
*Xtremolo	*	*
=24	=24	=24
4F\	(8.cc\L	.
.	16bn\Jk)	.
4A\	16cc\LL	.
.	16ee-\	.
.	16gg\	.
.	16ff\JJ	.
4F\	(8.ffL 8.dd\	.
.	16ee-\Jk)	.
!!LO:LB:g=original
=25	=25	=25
4B-\	16ffLL 16dd\	.
.	16ee-\	.
.	16dd\	.
.	16ee-\JJ	.
8r	2dd\	.
8BB-/L	.	.
8D/	.	.
8F/J	.	.
=26||	=26||	=26||
*Xtuplet	*tuplet	*
8B-\L	8b-/L	.
!	!LO:TUP:b	!LO:DY:t=for
24F\L	24f/L	f
24G\	24g/	.
24A\JJ	24a/JJ	.
*	*Xtuplet	*
8B-\L	8b-\L	.
8d\J	8dd\J	.
4g>\	4gg\	.
=27	=27	=27
8.e->\L	8.ee-\L	.
16c\Jk	16cc\Jk	.
8A\L	8a/L	.
8F\J	8f/J	.
4f>\	4ff\	.
=28	=28	=28
8.d\L	8.dd\L	.
16B-\Jk	16b-\Jk	.
4G\	8g/L	.
.	8ee-/J	.
4E- 4EE-/	8.ccL 8.e-/	.
.	16b-/Jk	.
=29	=29	=29
4F\	16a/LL	.
.	16b-\	.
.	16dd\	.
.	16cc\JJ	.
.	8qqcc/	.
8r	2b-\	.
8FF/	.	.
4BB-/	.	.
!!LO:LB:g=original
=30||	=30||	=30||
*tremolo	*	*
!LO:TX:a:t=P:problem=mixed beam	!	!
!	!	!LO:DY:t=pia
!	!	!LO:DY:rj
8FF/L	4.cc 4.a\	p
8F\	.	.
8FF/	.	.
8F\	16ddLL 16b-\	.
.	16ee-JJ 16cc\	.
8FF/	8ee-L 8cc\	.
8F\J	8ddJ 8b-\	.
=31	=31	=31
!LO:TX:a:t=P:problem=mixed beam	!	!
8FF/L	8ddL 8b-\	.
8F\	8ccJ 8a\	.
8FF/	4.cc 4.a\	.
8F\	.	.
8FF/	.	.
8F\J	8ee- 8cc\	.
=32	=32	=32
!LO:TX:a:t=P:problem=mixed beam	!	!LO:DY:t=f&colon;
8BB-/L	8dd 8b-\	f
8B-\	4dd 4b-\	.
8BB-/	.	.
!	!	!LO:DY:rj
8B-\	16ee-LL 16cc\	p
.	16ffJJ 16dd\	.
8BB-/	8.ffL 8.dd\	.
8B-J	.	.
.	16ee-Jk 16cc\	.
=33	=33	=33
!LO:TX:a:t=P:problem=mixed beam	!	!
8BB-/L	8ee-L 8cc\	.
8B-\	8ddJ 8b-\	.
8BB-/	4.dd 4.b-\	.
8B-\	.	.
8BB-/	.	.
8B-\J	8bb-\	.
*Xtremolo	*	*
=34	=34	=34
.	(16qqaa/LL	.
.	16qqccc/JJ	.
8r	8.bb-\L)	.
8e-\L	.	.
.	16gg\Jk	.
8c\	4.gg 4.ee-\	.
8B-'\J	.	.
4A\	.	.
.	8ee- 8cc\	.
!!LO:LB:g=original
=35	=35	=35
4B-\	8ddL 8b-\	.
.	8ffJ 8dd\	.
.	16qqeen/LL	.
.	16qqgg/JJ	.
4BB-/	(8.ff\L	.
.	16dd\Jk)	.
4F\	(8.dd\L	.
.	16cc\Jk)	.
==||	==||	==||
*-	*-	*-
!!!system-decoration: {(s1,s2)}
!!!RDF**kern: > = above
!!!RDF**kern: < = below
!!!EED: Antoni Szymański
!!!EEV: 2020-10-04
!!!ENC: Andrzej Borzym
!!!END: 2020-06-02
!!!YEC: Copyright 2022 Narodowy Instytut Fryderyka Chopina (https://polishscores.org)
!!!YEM: License CC-BY-4.0 (https://creativecommons.org/licenses/by/4.0)
